icons/Hurricane Warning--1504924.svg

<svg enable-background="new 0 0 16 16" viewBox="0 0 16 16" xmlns="http://www.w3.org/2000/svg"><path d="m4.5 16c-.276 0-.5-.224-.5-.5v-15c0-.276.224-.5.5-.5s.5.224.5.5v15c0 .276-.224.5-.5.5z"/><path d="m13.5 7h-9c-.276 0-.5-.224-.5-.5s.224-.5.5-.5h8.5v-5h-8.5c-.276 0-.5-.224-.5-.5s.224-.5.5-.5h9c.276 0 .5.224.5.5v6c0 .276-.224.5-.5.5z"/><path d="m10.5 5h-3c-.276 0-.5-.224-.5-.5v-2c0-.276.224-.5.5-.5h3c.276 0 .5.224.5.5v2c0 .276-.224.5-.5.5zm-2.5-1h2v-1h-2z"/><path d="m13.5 13h-9c-.276 0-.5-.224-.5-.5s.224-.5.5-.5h8.5v-5h-8.5c-.276 0-.5-.224-.5-.5s.224-.5.5-.5h9c.276 0 .5.224.5.5v6c0 .276-.224.5-.5.5z"/><path d="m10.5 11h-3c-.276 0-.5-.224-.5-.5v-2c0-.276.224-.5.5-.5h3c.276 0 .5.224.5.5v2c0 .276-.224.5-.5.5zm-2.5-1h2v-1h-2z"/></svg>

<?xml version="1.0" encoding="utf-8"?>
<!DOCTYPE svg PUBLIC "-//W3C//DTD SVG 1.0//EN" "http://www.w3.org/TR/2001/REC-SVG-20010904/DTD/svg10.dtd">
<svg    fill="#000000" xmlns="http://www.w3.org/2000/svg" xmlns:xlink="http://www.w3.org/1999/xlink" version="1.1" x="0px" y="0px" viewBox="0 0 16 16" style="enable-background:new 0 0 16 16;" xml:space="preserve"><g><path d="M4.5,16C4.224,16,4,15.776,4,15.5v-15C4,0.224,4.224,0,4.5,0S5,0.224,5,0.5v15C5,15.776,4.776,16,4.5,16z"></path><path d="M13.5,7h-9C4.224,7,4,6.776,4,6.5S4.224,6,4.5,6H13V1H4.5C4.224,1,4,0.776,4,0.5S4.224,0,4.5,0h9C13.776,0,14,0.224,14,0.5   v6C14,6.776,13.776,7,13.5,7z"></path><path d="M10.5,5h-3C7.224,5,7,4.776,7,4.5v-2C7,2.224,7.224,2,7.5,2h3C10.776,2,11,2.224,11,2.5v2C11,4.776,10.776,5,10.5,5z M8,4   h2V3H8V4z"></path><path d="M13.5,13h-9C4.224,13,4,12.776,4,12.5S4.224,12,4.5,12H13V7H4.5C4.224,7,4,6.776,4,6.5S4.224,6,4.5,6h9   C13.776,6,14,6.224,14,6.5v6C14,12.776,13.776,13,13.5,13z"></path><path d="M10.5,11h-3C7.224,11,7,10.776,7,10.5v-2C7,8.224,7.224,8,7.5,8h3C10.776,8,11,8.224,11,8.5v2C11,10.776,10.776,11,10.5,11   z M8,10h2V9H8V10z"></path></g></svg>
